X:1
T:Sir John Stuart Forbes Bart. of Fettercairn
T:Sir John Stuart Forbes Bart. of Fettercairn
T:Alexander Walker
C:Alexander Walker
L:1/8
M:4/4
K:Bb
V:1 treble 
V:1
 d | B>F F/F/F D>B,F>B, | G>B,F>B, E<CC>F | B>F F/F/F D>B,F>D | E>D{D}C>B, A,<CCd | %5
 B>F F/F/F D>B,F>B, | G>B,F>B, E<CC>F | d>B e/d/c/A/ B>FG>E | G>BF>e d<B B || e | d<fb>f g>fb>f | %11
 Tc>BTd>B c<G G>e | d<fb>f g>fb>d | G>c (B/A/).G/.F/ (B2 B>)e | d<fb>f g>fb>d | Tc>BTd>B c<GG<B | %16
 F>Bd>B Gg | f<bf>e d<B B || %18

